X:1
T:O du fröhliche
T:Weihnachtsalbum
T:Oh, You Joyful  (trad. Sicily) Silent Night (Gruber) Daughter of Zion, Rejoice (Händel) easy arrangement for Flute, Clarinet & Piano 
T:3 Christmas Carols
T:Karl Riedel (1827-1888)
T:twoflutes 2019 / Felix Scharpf / https://commons.wikimedia.org/wiki/File:D%C3%A9coration_du_sapin_de_No%C3%ABl.jpg
T:twoflutes 2019 / Felix Scharpf / https://commons.wikimedia.org/wiki/File:D%C3%A9coration_du_sapin_de_No%C3%ABl.jpg
T:twoflutes 2019 / Felix Scharpf / https://commons.wikimedia.org/wiki/File:D%C3%A9coration_du_sapin_de_No%C3%ABl.jpg
T:twoflutes 2019 / Felix Scharpf / https://commons.wikimedia.org/wiki/File:D%C3%A9coration_du_sapin_de_No%C3%ABl.jpg
T:twoflutes 2019 / Felix Scharpf / https://commons.wikimedia.org/wiki/File:D%C3%A9coration_du_sapin_de_No%C3%ABl.jpg
C:Karl Riedel
Z:twoflutes 2019 / Felix Scharpf / https://commons.wikimedia.org/wiki/File:D%C3%A9coration_du_sapin_de_No%C3%ABl.jpg
%%score [ 1 2 ] { ( 3 4 5 ) | ( 6 7 8 9 ) }
L:1/8
M:4/4
K:F
V:1 treble nm="Flute" snm="Fl."
V:2 treble transpose=-2 nm="Clarinet" snm="Cl."
V:3 treble nm="Piano" snm="P."
V:4 treble 
V:5 treble 
V:6 bass 
V:7 bass 
V:8 bass 
V:9 bass 
V:1
"^O du fröhliche (Oh, You Joyful)" c4 d4 | c3 B (A2 B2) | c4 d4 | c3 B (A2 B2) | c4 c4 | d4 e2 f2 | %6
 e4 d4 | c6 z2 || (G3 A) G2 A2 | (B3 c) B4 | (A3 B) A2 B2 | (c3 d) c4 | (f2 e2) (d2 c2) | %13
 (f2 d2) (c2 B2) | A4 G4 | F6 z2 |][M:6/8]"^Stille Nacht ( Silent Night)"[Q:1/8=100] c>dc A3 | %17
 c>dc A3 | g2 g e3 | f2 f c3 | d2 d f>ed | c>dc A3 | d2 d f>ed | c>dc A3 | g2 g b>ge | f3 a2 z | %26
 f>cA c>BG | F3- F2 z |] %28
[M:2/2]!mf!"^Tochter Zion, freue Dich ( Daughter of Zion, Rejoice)"[Q:1/2=70] c4 (A3 B) | c4 F4 | %30
 (GABc B2) A2 | G8 | (ABcd) c2 c2 | f4 c4 | B2 (AB G3) F | F8 | (AGAB A2) A2 | (G2 AG F2) F2 | %38
 (B2 A2 G2 F2) | E8 | (d^cde d2) e2 | f4 d4 | (e2 dc d3) c | c8 | c4 (A3 _B) | c4 F4 | %46
 (GABc B2) A2 | G8 | (ABcd c2) c2 | f4 c4 | (B2 AB G3) F | F8 |] %52
V:2
[K:G] B4 c4 | B3 A (G2 A2) | B4 c4 | B3 A (G2 A2) | B4 d4 | ^c4 d2 B2 | A4 G4 | F6 z2 || %8
 (F3 G) F2 G2 | (A3 B) A4 | (G3 A) G2 A2 | (B3 c) B4 | (G2 d2) (c2 B2) | (e2 c2) (B2 A2) | G4 F4 | %15
 G6 z2 |][M:6/8] B>cB G3 | B>cB G3 | c2 c c3 | BcB d3 | c2 c e>dc | B>cB B3 | c2 c e>dc | B>cB B3 | %24
 c2 c Adc | B3 dBG | B2 G B>AF | G3- G2 z |][M:2/2]!mp! B4 (G3 A) | B4 G4 | (FGAB A2) G2 | F8 | %32
 (GABc B2) B2 | B4 B4 | A2 (GA A2 (F)G) | G8 | (GFGA G2) G2 | (F2 GF E2) G2 | (A2 G2 F2 E2) | ^D8 | %40
 B6 ^d2 | e4 ^c4 | (d2 ^cB A2 G2) | F8 | B4 (G3 A) | B4 G4 | (FGAB A2) G2 | F8 | (GABc B2) B2 | %49
 B4 B4 | (A2 GA A2) FG | G8 |] %52
V:3
 x8 | x8 | x8 | x2 F6 | F2 A2 G2 E2 | x8 | x8 | x2 z2 z4 || ([EG]3 [FA]) [EG]2 [FA]2 | %9
 ([GB]3 [Ac]) [GB]4 | ([FA]3 [GB]) [FA]2 [GB]2 | ([Ac]3 [Bd]) [Ac]4 | [Fcf]2 [Fce]2 [FBd]2 [FAc]2 | %13
 [Fdf]2 [FBd]2 [FAc]2 [DGB]2 | [FA]4 [EG]4 | F6 z2 |][M:6/8] [Fc]>[Bd][Ac] A3 | %17
 [Ac]>[Bd][Ac] [FA]3 | g2 g/e/ e3 | f2 f/c/ c3 | [Bd]F[Bd] f>[ce]d | c>fc A3 | d2 d f>[ce]d | %23
 c>dc A3 | [Bg]3 [egb]>ge | f3 a3 | f>cA c>BG | F3- F2 z |][M:2/2] [FAc]4 [FA]3 [GB] | [FAc]4 F4 | %30
 ([EG][FA][GB][Ac]) [GB]2 [FA]2 | [EG]8 | (A[GB][Ac][Bd]) [Ac]2 [Ac]2 | [Acf]4 [FAc]4 | %34
 [Gc]2 (AG G3) F | x8 | ([FA][EG][FA][GB] [FA]2) [FA]2 | ([EG]2 [FA][EG] F2 [DF]2) | %38
 ([GB]2 [FA]2 [EG]2 [DF]2) | [^CE]8 | (d^cde d2) e2 | f4 d4 | ([Ac]2 dc =B3) c | [Ec]8 | %44
 [Ac]4 A3 B | [Ac]4 F4 | ([EG][FA][GB][Ac] [GB]2) [FA]2 | [EG]8 | ([FA][GB][Ac][Bd] [Ac]2) [Ac]2 | %49
 [Acf]4 ([Ac]4 | [GB]2 AG G3) F | [A,CF]8 |] %52
V:4
 A2 F2 D2 B2 | A3 G F2 G2 | F2 C2 d4 | x8 | x8 | x8 | x8 | x8 || x8 | x8 | x8 | x8 | x8 | x8 | x8 | %15
 x8 |][M:6/8] x6 | x6 | B2 B BcG | cFA GFE | D F2 dFB | AFA A3 | BFB dFB | A2 A A3 | B3 GcB | %25
 [Ac][ce][Bd] [Ac]DF | A>AF A-A/E/E | F3 F2 x |][M:2/2] x8 | x8 | x8 | x8 | x8 | x8 | x8 | F8 | %36
 x8 | x8 | x8 | x8 | A6 ^c2 | d4 =B4 | (A2 =BA G2 F2) | x8 | F4 F3 G | F4 x4 | x8 | x8 | x8 | x8 | %50
 x8 | x8 |] %52
V:5
 c4 d4 | c3 B (A2 B2) | c4 x2 B2 | c3 B (A2 B2) | c4 c4 | [G=Bd]4 [Gce]2 [FAf]2 | [Gce]4 [F=Bd]4 | %7
 [Ec]6 x2 || x8 | x8 | x8 | x8 | x8 | x8 | x8 | x8 |][M:6/8] x6 | x6 | x6 | x6 | x6 | x6 | x6 | %23
 x6 | x6 | x6 | x6 | x6 |][M:2/2] x8 | x8 | x8 | x8 | x8 | x8 | x8 | x8 | x8 | x8 | x8 | x8 | x8 | %41
 x8 | x8 | x8 | x8 | x8 | x8 | x8 | x8 | x8 | x8 | x8 |] %52
V:6
 F,4 B,4 | F2 F,6 | A,4 B,4 | A,3 G, F,2 G,2 | A,2 F,2 E,2 C2 | G,2 F,2 E,2 D,2 | G,2 G,4 G,,2 | %7
 C,2 C4 C2 || C,2 C,,4 C,2- | C,2 C4 C,2 | F,2 F,,4 F,2- | F,2 F4 F,2 | A,2 A,2 B,2 F,2 | %13
 B,,2 D,2 F,2 G,2 | C2 C4 [C,B,]2 | A,6 z2 |][M:6/8] A, C2 FCA, | F,C,E, F,A,C | E,D,C, G,A,B, | %19
 A,G,F, E,D,C, | [B,,F,]3 [B,,F,]3 | F,A,C FCA, | [B,,F,B,]3 [B,,F,]- [B,,F,]2 | F,A,C FED | %24
 CDE C3 | F,2- F, F2 F | x6 | x6 |][M:2/2] z4 F,4 | [A,C]4 z4 | C2 F,2 E,2 F,2 | C8 | F6 F2 | %33
[K:treble] A4 F4 | E2 F2 F2 E2 | [A,C]8 | A2 D2 A2 D2 | E2 ^C2 D2 B,2 |[K:bass] G,6 G,2 | %39
 (A,2 G,2 F,2 E,2) | (F^EFG F2) ^E2 | D4[K:treble] G4 | C2 F2 G2 G,2 | E8 | F4 F,4 | F4 F,4 | %46
 C2[K:bass] F,2 E,2 F,2 | C8 | C,2 F,2 F,4 | z4[K:treble] (F4 | E2 F2 [C-F]2 [CE]2 | [A,C]8) |] %52
V:7
 x8 | x8 | x8 | x8 | x8 | x8 | x8 | x8 || x8 | x8 | x8 | x8 | x8 | x8 | x8 | F,2 F,,6 |] %16
[M:6/8] x6 | x6 | x6 | x6 | x6 | x6 | x6 | x6 | x6 | x6 | x6 | x6 |][M:2/2] x8 | x8 | x8 | x8 | %32
 x8 |[K:treble] x8 | x8 | x8 | x8 | x8 |[K:bass] x8 | x8 | x8 | x4[K:treble] x4 | x8 | x8 | x8 | %45
 x8 | x2[K:bass] x6 | x8 | x8 | x4[K:treble] x4 | x8 | x8 |] %52
V:8
 x8 | x8 | x8 | x8 | x8 | x8 | x8 | x8 || x8 | x8 | x8 | x8 | x8 | x8 | x8 | x8 |][M:6/8] x6 | x6 | %18
 x6 | x6 | x6 | x6 | x6 | x6 | x6 | x6 | C3 C,- C,2 | F,C,-C, F,2 x |][M:2/2] x8 | x8 | x8 | x8 | %32
 x8 |[K:treble] x8 | x8 | x8 | x8 | x8 |[K:bass] x8 | x8 | x8 | x4[K:treble] x4 | x8 | x8 | x8 | %45
 x8 | x2[K:bass] x6 | x8 | x8 | x4[K:treble] x4 | x8 | x8 |] %52
V:9
 x8 | x8 | x8 | x8 | x8 | x8 | x8 | x8 || x8 | x8 | x8 | x8 | x8 | x8 | x8 | x8 |][M:6/8] x6 | x6 | %18
 x6 | x6 | x6 | x6 | x6 | x6 | x6 | x6 | C3 C,CB, | A,2 C A,2 z |][M:2/2] x8 | x8 | x8 | x8 | x8 | %33
[K:treble] x8 | x8 | x8 | x8 | x8 |[K:bass] x8 | x8 | x8 | x4[K:treble] x4 | x8 | x8 | x8 | x8 | %46
 x2[K:bass] x6 | x8 | x8 | x4[K:treble] x4 | x8 | x8 |] %52

